X: 2993
T: Battered Hake
R: polka
M: 2/4
K: Dmajor
|:D/E/F/G/ AA|D/E/F/G/ AA|E/F/G/A/ BB|E/F/G/A/ BB|
D/E/F/G/ AA|D/E/F/G/ AA|BG cA|dB ec:|
|:dd c/d/e/c/|dd A2|BG G/A/B/G/|AF ED|
dd c/d/e/c/|dd A2|BG cA|dB ec:|

